X:1
T: White Heather Jig
T: Second Tune
R:Jig
Q:180
K:C
M:6/8
L:1/16
E6 B,6|C6 E6|A4G2 G4^F2|G6-G6|E6 B,6|C4E2 A4G2|G6-G6|B,6-B,6|
D6^C6|D4A,2 F4E2|D4D2 ^C2D2E2|D6-D6|D4^D2 E4F2|^F4c2 B4A2|G4G2 A2G2^F2|G6-G6|
E6 B,6|C6E6|A4G2 G4^F2|G6-G6|e6c6|G6E6|B4A2 A4^G2|A6-A6|
f4e2 d4^c2|d6g6|e4d2 c2B2A2|G6 G4G2|A4c2 c2B2A2|G4e2 e2d2c2|B2A2G2 F2E2D2|C6 D6|
K:G
G4G2 F2G2A2|G4G2 G4D2|B4B2 A2B2c2|B6 B4B2|c4A2 F4e2|d4c2 B4d2|d2e2d2 c2B2A2|G6||
